img/icons/pdf_icon.svg

<svg width="14" height="18" viewBox="0 0 14 18" fill="none" xmlns="http://www.w3.org/2000/svg">
<path d="M13.6914 4.63867C13.8086 4.75586 13.875 4.91406 13.875 5.08008V17.125C13.875 17.4707 13.5957 17.75 13.25 17.75H0.75C0.404297 17.75 0.125 17.4707 0.125 17.125V0.875C0.125 0.529297 0.404297 0.25 0.75 0.25H9.04492C9.21094 0.25 9.37109 0.316406 9.48828 0.433594L13.6914 4.63867ZM12.4336 5.36719L8.75781 1.69141V5.36719H12.4336ZM9.36758 11.4465C9.07109 11.4367 8.75586 11.4596 8.39785 11.5043C7.92324 11.2115 7.60371 10.8094 7.37676 10.2186L7.39766 10.133L7.42187 10.0318C7.50586 9.67773 7.55098 9.41934 7.56445 9.15879C7.57461 8.96211 7.56367 8.78066 7.52871 8.6125C7.46426 8.24941 7.20742 8.03711 6.88379 8.02402C6.58203 8.01172 6.30469 8.18027 6.23379 8.44141C6.11836 8.86367 6.18594 9.41934 6.43066 10.367C6.11895 11.1102 5.70703 11.9814 5.43066 12.4674C5.06172 12.6576 4.77441 12.8307 4.53301 13.0225C4.21465 13.2758 4.01582 13.5361 3.96113 13.8096C3.93457 13.9363 3.97461 14.102 4.06582 14.2377C4.16934 14.3916 4.3252 14.4916 4.51211 14.5061C4.98379 14.5426 5.56348 14.0563 6.20352 12.958C6.26777 12.9365 6.33574 12.9139 6.41875 12.8857L6.65117 12.8072C6.79824 12.7576 6.90488 12.7221 7.01035 12.6879C7.46738 12.5391 7.81309 12.4451 8.12754 12.3916C8.67402 12.6842 9.30566 12.876 9.73106 12.876C10.0822 12.876 10.3195 12.6939 10.4053 12.4074C10.4805 12.1559 10.4209 11.8641 10.2592 11.7027C10.092 11.5385 9.78457 11.46 9.36758 11.4465ZM4.52402 13.9547V13.9477L4.52656 13.941C4.55514 13.8671 4.59182 13.7967 4.63594 13.7309C4.71953 13.6023 4.83457 13.4672 4.97715 13.3232C5.05371 13.2461 5.1334 13.1709 5.22695 13.0865C5.24785 13.0678 5.38145 12.9488 5.40645 12.9254L5.62461 12.7223L5.46602 12.9748C5.22539 13.3584 5.00781 13.6346 4.82148 13.8146C4.75293 13.8811 4.69258 13.9299 4.64375 13.9613C4.62763 13.9721 4.61057 13.9814 4.59277 13.9891C4.58477 13.9924 4.57773 13.9943 4.5707 13.9949C4.56328 13.9959 4.55574 13.9949 4.54883 13.992C4.54148 13.9889 4.5352 13.9837 4.53079 13.9771C4.52637 13.9705 4.52402 13.9627 4.52402 13.9547ZM6.98379 9.69141L6.93965 9.76953L6.9123 9.68398C6.85176 9.49199 6.80723 9.20273 6.79492 8.9418C6.78086 8.64492 6.80449 8.4668 6.89824 8.4668C7.02988 8.4668 7.09023 8.67773 7.09492 8.99512C7.09922 9.27402 7.05527 9.56426 6.98359 9.69141H6.98379ZM6.87031 10.8332L6.9002 10.7541L6.94102 10.8283C7.16934 11.2432 7.46563 11.5893 7.79141 11.8305L7.86172 11.8824L7.77598 11.9C7.45703 11.966 7.15996 12.0652 6.75371 12.2291C6.79609 12.2119 6.33145 12.4021 6.21387 12.4473L6.11133 12.4865L6.16602 12.3912C6.40723 11.9713 6.63008 11.467 6.87012 10.8332H6.87031ZM9.94883 12.3227C9.79531 12.3832 9.46484 12.3291 8.88301 12.0807L8.73535 12.0178L8.89551 12.0061C9.35059 11.9723 9.67285 11.9973 9.86074 12.066C9.94082 12.0953 9.99414 12.1322 10.0178 12.1744C10.0302 12.1944 10.0344 12.2184 10.0294 12.2414C10.0245 12.2644 10.0108 12.2846 9.99121 12.2977C9.97879 12.3086 9.96441 12.3171 9.94883 12.3227Z" fill="#DB4212"/>
</svg>

<svg width="14" height="18" fill="none" xmlns="http://www.w3.org/2000/svg"><path d="M13.691 4.639a.624.624 0 01.184.441v12.045c0 .346-.28.625-.625.625H.75a.624.624 0 01-.625-.625V.875C.125.529.405.25.75.25h8.295c.166 0 .326.066.443.184l4.203 4.205zm-1.257.728L8.758 1.691v3.676h3.676zm-3.066 6.08a6.193 6.193 0 00-.97.057c-.475-.293-.794-.695-1.021-1.285l.02-.086.025-.101c.084-.354.129-.613.142-.873.01-.197 0-.378-.035-.546-.065-.364-.322-.576-.645-.589-.302-.012-.58.156-.65.417-.116.423-.048.978.197 1.926-.312.743-.724 1.614-1 2.1-.37.19-.657.364-.898.556-.318.253-.517.513-.572.787a.596.596 0 00.105.428c.103.154.26.254.446.268.472.037 1.051-.45 1.692-1.548l.215-.072.232-.079.36-.12a7.936 7.936 0 011.117-.295c.546.292 1.178.484 1.603.484.351 0 .588-.182.674-.469.075-.251.016-.543-.146-.704-.167-.164-.474-.243-.891-.256zm-4.844 2.508v-.007l.003-.007a1.07 1.07 0 01.109-.21c.084-.129.199-.264.341-.408.077-.077.156-.152.25-.237l.18-.16.218-.204-.159.253c-.24.383-.458.66-.645.84a1.204 1.204 0 01-.177.146.32.32 0 01-.051.028.074.074 0 01-.022.006.04.04 0 01-.047-.04zm2.46-4.264l-.044.079-.028-.086a3.222 3.222 0 01-.117-.742c-.014-.297.01-.475.103-.475.132 0 .192.21.197.528.004.279-.04.57-.111.696zm-.114 1.142l.03-.079.041.074c.228.415.525.761.85 1.003l.07.051-.085.018a5.763 5.763 0 00-1.022.33c.042-.018-.423.172-.54.217l-.103.04.055-.096c.241-.42.464-.924.704-1.558zm3.079 1.49c-.154.06-.484.006-1.066-.242l-.148-.063.16-.012c.456-.034.778-.009.966.06.08.03.133.066.157.108a.09.09 0 01-.027.124.132.132 0 01-.042.025z" fill="#DB4212"/></svg>
